X:147
T:Mist on the Meadows
T:Thrush in the Straw, The
R:jig
Z:id:hn-jig-147
M:6/8
K:G
f|gdB BAB|GBA GBd|gdB BAB|GBd e2f|gdB BAB|GBA GBd|gfe fdB|ABd e2:|
|:f|~g3 bge|~f3 afd|~g3 bge|edB GBd|~g3 bge|~f3 afd|gfe fdB|ABd e2:|

